X: 0
T: He Shall Feed His Flocks
Z: George Frederic Handel
Z: From "Messiah" Page of Antipas Society
Z: Public Domain
L: 1/4
M: 13/8
V: P1 name="Bassoon"
%%MIDI program 1 70
V: P2 name="Soprano Solo"
%%MIDI program 2 73
V: P3 name="Alto Solo"
%%MIDI program 3 73
V: P4 name="Violin I"
%%MIDI program 4 48
V: P5 name="Violin II"
%%MIDI program 5 48
V: P6 name="Viola"
%%MIDI program 6 48
V: P7 name="Cello"
%%MIDI program 7 48
V: P8 name="Harpsichord"
%%MIDI program 8 6
V: P9 name="Harpsichord-2"
%%MIDI program 9 6
V: P10 name="Tempo Track"
%%MIDI program 10 -1
K: F
[V: P1]  F,,/ F,,4 _E,/ D, C,/ | [M: 12/8]  B,,4 A,,/ G,, F,,/ | E,, F,,/ B,,3 A,,3/4G,,/4F,,/ | C,3/ C,,3/ F,,3 | z6 | z6 | z6 | z6 | z6 | z6 | z6 | z6 | z6 | z6 | z6 | z6 | z6 | z6 | z6 | z6 | z6 | z6 |z3 F, _E,/ D, C,/ | B,,4 A,,/ G,, F,,/ | B,, D,/ C, C,,/ F,,3 [K: Bb]  | z6 | z6 | z6 | z6 | z6 | z6 | z6 | z6 | z6 | z6 | z6 | z6 | z6 | z6 | z6 | z6 | z6 | z6 | z6 | z6 | z6 | z6 | z6 | z6 | z6 | z6 |z3 B,,3- | B,,4 _A,/ G, F,/ | E,4 D,/ C, B,,/ | A,, B,,/ E,3 D,3/4C,/4B,,/ | F,3/ F,,3/ B,,3|]
[V: P2]  z6z/ | [M: 12/8]  z6 | z6 | z6 | z6 | z6 | z6 | z6 | z6 | z6 | z6 | z6 | z6 | z6 | z6 | z6 | z6 | z6 | z6 | z6 | z6 | z6 | z6 | z6 | z4z/z f/ [K: Bb]  | f e/ d c/ B2- B/A/ | B c/ d3/4e/4f/ F3/z f/ | f e/ d c/ B2- B/B/ | g f/ =e/d/c/ B/4A/4 B- B c/ | A/G/B/ A/B/G/ F3 | z4z/z f/ | f e/ d c/ B2- B/A/ | B c/ d3/4e/4f/ F3/z f/ | f e/ d c/ B3/z B/ | g f/ =e/d/c/ B/4A/4 B- B c/ | A/G/B/ A/B/G/ F3 | z6 | f e/ d c/ =B3/ c d/ | e3/ d/8e/8d/8e/8d/8e/8d/8e/8c/ c3/z c/ | G _G/ =G A/ B A/ B c/ | d c/ d e/ f2- f/f/ | c B/ c d/ e2- e/e/ | d3/ c B/ A B/z e/ | d3/ c B/ B3 | z6 | f e/ d c/ =B3/ c d/ | e3/ d/8e/8d/8e/8d/8e/8d/8e/8c/ c3/z c/ | G _G/ =G A/ B A/ B c/ | d c/ d e/ f2- f/f/ | c B/ c d/ e2- e/e/ | d3/ c B/ f2- f/g/ | d3/ c/8d/8c/8d/8c/8d/8c/8d/8B/ B3 | z6 | z6 | z6 | z6|]
[V: P3]  z6z/ | [M: 12/8]  z6 | z6 | z4z/z c/ | c B/ A G/ F3/ C E/ | F G/ A3/4B/4c/ C3/z c/ | c B/ A G/ F E/ F F/ | d c/ =B/A/G/ F3 | E/D/F/ E3/4F/4D/ C3 | z4z/z c/ | c B/ A G/ F3/ C E/ | F G/ A3/4B/4c/ C3/z c/ | c B/ A G/ F E/ F F/ | d c/ =B/A/G/ F3 | E/D/F/ E3/4F/4D/ C3 | z4z/z c/ | c B/ A G/ _G3/ =G3/ | A B/ B A/ G3/z G/ | D _D/ =D E/ F E/ F G/ | A G/ A B/ c2- c/c/ | G F/ G A/ B2- B/B/ | A3/4B/4A/ G F/ E3/4D/4C/ c B/ | A3/ G/8A/8G/8A/8G/8A/8G/8A/8F/ F3 | z6 | z4 [K: Bb]  | z6 | z6 | z6 | z6 | z6 | z6 | z6 | z6 | z6 | z6 | z6 | z6 | z6 | z6 | z6 | z6 | z6 | z6 | z6 | z6 | z6 | z6 | z6 | z6 | z6 | z6 | z6 | z6 | z6 | z6 | z6|]
[V: P4]  c/ c B/ A G/ F2- F/ f/ | [M: 12/8]  f _e/ d c/ B2- B/B/ | B A/ G F/ E3/4D/4C/ c3/- | c3/4B/4A/ B3/4A/4G/ F3- | F2 F/C/ C B,/ A, G,/ | A, C/ F3/4G/4A/ G F/ E G/ | A G/ F E/ D2- D/C/ | =B, C/ D E/ D C/ D B,/ | G c/ C3/4D/4=B,/ E D/ C c/ | c B/ A G/ F2- F/E/ | F D/ C B,/ A, B,/ A, G,/ | A, C/ F3/4G/4A/ G F/ E G/ | A G/ F E/ D2- D/C/ | =B, C/ D E/ D C/ D B,/ | G c/ C3/4D/4=B,/ E D/ C c/ | c B/ A G/ _G3- | _G D/ C B,/ A,3/ =G3/ | _G =G/ G _G/ =G C/ B, A,/ | B, A,/ B, B,/ A,3/ D C/ | C2- C/E/ F E/ F3/4G/F/4 | E D/ E F/ G E/ g3/4f/4e/ | f c/ d G/ G3/ F3/- | F3/ E3/ F2- F/f/ | f _e/ d c/ B2- B/A/ | G3/4A/4F/ A G/ F2- F/f/ [K: Bb]  | f e/ d c/ B2- B/A/ | B c/ d3/4e/4f/ F3/z f/ | f e/ d c/ B2- B/B/ | g f/ =e/d/c/ B/4A/4 B- B c/ | A/G/B/ A/B/G/ F2- F/f/ | f e/ d c/ B2- B/d/ | d c/ B A/ B2- B/A/ | B c/ d3/4e/4f/ F3/z f/ | f e/ d c/ B3/z B/ | g f/ =e/d/c/ B/4A/4 B- B c/ | A/G/B/ A/B/G/ F3 | f e/ d c/ =B c/ d e/ | f e/ d c/ =B3/ c d/ | e3/ d c/ c2- c/c/ | G _G/ =G A/ B A/ B c/ | d c/ d e/ f2- f/f/ | c B/ c d/ e2- e/e/ | d3/ c B/ A B/z e/ | d3/ c B/ B c/ d e/ | f e/ d c/ =B c/ d e/ | f e/ d c/ =B3/ c d/ | e3/ d/8e/8d/8e/8d/8e/8d/8e/8c/ c3/z c/ | G _G/ =G A/ B A/ B c/ | d c/ d e/ f2- f/f/ | c B/ c d/ e2- e/e/ | d3/ c B/ f2- f/g/ | d3/ c/8d/8c/8d/8c/8d/8c/8d/8B/ B2- B/f/ | f e/ d c/ B2- B/b/ | b _a/ g f/ e2- e/e/ | e d/ c B/ A3/4G/4F/ f3/- | f3/4e/4d/ e3/4d/4c/ B3|]
[V: P5]  A/ A G/ F E/ F C/ B, A,/ | [M: 12/8]  d c/ B A/ B2- B/A/ | G F/ D D/ C G,/ A3/- | A3/4G/4F/ G3/4F/4E/ F2- F/A/ | A G/ F E/ F2- F/C/ | F G/ A3/4B/4c/ C2- C/c/ | c B/ A G/ F E/ F F/ | d c/ =B/A/G/ F3 | E/D/F/ E3/4F/4D/ C2- C/B,/ | A, D/ C B,/ A, B,/ A, c/ | c B/ A G/ F3/ C E/ | F G/ A3/4B/4c/ C2- C/c/ | c B/ A G/ F E/ F F/ | d c/ =B/A/G/ F3 | E/D/F/ E3/4F/4D/ C3/ G, E/ | A G/ _G E/ D2- D/c/ | c B/ A G/ _G3/ =G3/ | A B/ B A/ G2- G/G/ | D _D/ =D E/ F E/ F G/ | A G/ A B/ c2- c/c/ | G F/ G A/ B2- B/B/ | A3/4B/4A/ G F/ E3/4D/4C/ c B/ | A3/ G F/ F C/ F A/ | d c/ B A/ B D/ E3/ | D F/ F E/ F D/ C d/ [K: Bb]  | d c/ B A/ B G/ F E/ | F A/ B3/4c/4d/ c B/ c c/ | d c/ B A/ B A/ G F/ | =E F/ G A/ G2- G/G/ | F F/ F =E/ A G/ F A/ | d c/ B A/ B G/ F f/ | f e/ d c/ B G/ F E/ | D F/ F d/ c B/ A c/ | d c/ B A/ G2- G/F/ | =E F/ G A/ G F/ G E/ | c f/ F3/4G/4=E/ c B/ A G/ | F3 G A/ =B c/ | d c/ =B G/ G F/ E D/ | C3/ =B,3/ G F/ E D/ | E D/ E E/ D3/ G F/ | F2- F/A/ B A/ B3/4c/4B/ | A G/ A B/ c A/ c3/4B/4A/ | B F/ G C/ C D/z B/ | B3/ A3/ F A/ B c/ | d3/ F3/ G A/ =B c/ | d G/ F E/ D3/ G =B/ | c3/ =B3/ G F/ E D/ | E D/ E E/ D3/ G F/ | F2- F/A/ B A/ B3/4c/4B/ | A G/ A B/ c A/ c3/4B/4A/ | B F/ G C/ A3/ B3/- | B3/ A3/ B G/ F E/ | D C/ B, E/ D F/ E D/ | G c/ B _A/ G B/ =A B/ | c F/ G3/ F c/ d3/- | d3/4c/4B/ c3/4B/4A/ B3|]
[V: P6]  C/ C2- C/ B,/ A,3/ F, _E/ | [M: 12/8]  D _E/ F E/ D C/ B, F,/ | C C/ B, A,/ G, E,/ F3/- | F C/ C B,/ A,2- A,/F/ | C2- C/B,/ A, G,/ F, E,/ | C E/ C F/ C3/ G E/ | F E/ C B,/ A,3/ G, C/ | D A,/ =B, C/ B, C/ G, G,/ | G, F,/ G, G,/ G,3/ F E/ | F3/ F,3/ F D/ C B,/ | A, F,/ F E/ F D/ A, B,/ | C E/ C F/ C3/ G E/ | F E/ C B,/ A,3/ G, C/ | D A,/ =B, C/ B, C/ G, G,/ | G, F,/ G, G,/ G, F,/ E, A,/ | _G, =G,/ A,/B,/C/ A,2- A,/A,/ | A, B,/ _G, D/ D3/ D3/ | C B,/ D C/ B, _E/ D C/ | B,2- B,/G,/ F, _D,/ =D, E,/ | F, E,/ F, G,/ A, G,/ A, B,/ | C6- | C3/ B,3/ C3/4D/4E/ C D/ | C3/ B,3/ A,3/ B, C/ | D _E/ F E/ D C/ B, C/ | B, B,/ C B,/ A, B,/ A, B/ [K: Bb]  | B E/ F E/ D E/ D C/ | D F/ F F/ F G/ A A/ | B3/ F3/ D D/ =E F/ | G3/ C3/ =E2- E/E/ | C D/ C C/ C C/ D E/ | F2- F/E/ D E/ D B,/ | B3/ F E/ D E/ D C/ | B, A,/ B, F/ F G/ C A/ | B A/ F E/ D3/ C F/ | G D/ =E F/ E F/ C G/ | F D/ C B,/ A,3/ F E/ | D3/ _A3/ D C/ =B, G,/ | =B G/ F E/ D3/ G B,/ | G3/ F3/ E _A/ G F/ | E2- E/C/ B, _G,/ =G, A,/ | B, A,/ B, C/ D C/ D E/ | F6 | F3/ E3/ F3/ B E/ | F3/ E3/ D F/ F F/ | B3/ D3/ D3/ G3/ | =B, C/ D G,/ G F/ E D/ | G,3/ F3/ E _A/ G F/ | E2- E/C/ B, _G,/ =G, A,/ | B, A,/ B, C/ D C/ D E/ | F6 | F3/ E G/ C3/ D B,/ | F3/ E3/ D E/ D A,/ | B, A,/ F A/ F D/ B, _A/ | G E/ B, D/ B F/ E G/ | F F/ E D/ C A/ B3/- | B F/ A E/ D3|]
[V: P7]  F,,/ F,,4 _E,/ D, C,/ | [M: 12/8]  B,,4 A,,/ G,, F,,/ | E,, F,,/ B,,3 A,,3/4G,,/4F,,/ | C,3/ C,,3/ F,,3- | F,,6 | F,,2 F,,/F,/ E, D,/ C, B,,/ | A,,3/ C,3/ D, C,/ =B,, A,,/ | G,,4 A,,/ =B,, G,,/ | C,/=B,,/A,,/ G,, G,/ C, _B,,/ A,, G,,/ | F,,6- | F,,6 | F,,2 F,,/F,/ E, D,/ C, B,,/ | A,,3/ C,3/ D, C,/ =B,, A,,/ | G,,4 A,,/ =B,, G,,/ | C,/=B,,/A,,/ G,, G,,/ C,,3 | D,,6- | D,,6 | D,,3 G,,3- | G,,2 G,,/G,,/ D, _D,/ =D, E,/ | F, E,/ F, G,/ A, G,/ A, B,/ | C6 | F,3/ B,,3 A,, B,,/ | C,3/ C,,3/ F, _E,/ D, C,/ | B,,4 A,,/ G,, F,,/ | B,, D,/ C, C,,/ F,,3 [K: Bb]  | B,,6- | B,,2 B,,/B,/ A, G,/ F, E,/ | D,3/ F,3/ G, F,/ =E, D,/ | C,6 | F, B,,/ C, C,,/ F, E,/ D, C,/ | B,,6- | B,,6 | B,,2 B,,/B,/ A, G,/ F, E,/ | D,3/ F,3/ G, F,/ =E, D,/ | C,6 | F, B,,/ C,3/ F,3 | _A,,3 G,,3- | G,,6 | G,,3 C,3- | C,2 C,/C,/ G, _G,/ =G, A,/ | B, A,/ B, C/ D C/ D E/ | F6 | B,3/ E,2- E,/D,/ D, G,/ | F,3/ F,,3/ B,,3 | _A,,3 G,,3- | G,,6 | G,,3 C,3- | C,2 C,/C,/ G, _G,/ =G, A,/ | B, A,/ B, C/ D C/ D E/ | F6 | B,3/ E,3 D, E,/ | F,3/ F,,3/ B,,3- | B,,4 _A,/ G, F,/ | E,4 D,/ C, B,,/ | A,, B,,/ E,3 D,3/4C,/4B,,/ | F,3/ F,,3/ B,,3|]
[V: P8]  [C/F/A/c/] [C4-F4-A4-c4-] [C/F/A/c/] [DFB] [_E/A/c/] | [M: 12/8]  [F4-B4-d4-] [F/B/d/] [B,3/D3/] | [CG] [A,/C/F/] [D3/d3/] [C3/E3/G3/] [C3/F3/c3/] | [C3/F3/A3/] [B,3/E3/G3/] [A,3-C3-F3-] | [A,3C3F3] [A,3C3] | [C3/F3/A3/] [A3/c3/f3/] [CGc] F/ [C3/E3/G3/] | [C3/F3/A3/] [A,CF] E/ [A,F] E/ [Dd] c/ | [D3G3=B3] [DGBd] C/ D [D/G/B/] | [C/E/G/]D/[C/F/A/] [EGc] [D/G/=B/] [E3/G3/c3/] [CF] [_B,/E/G/] | [C3F3A3] [F2-A2-c2-] [F/A/c/][E/G/] | [C3F3A3] [A,3C3] | [C3/F3/A3/] [A3/c3/f3/] [CGc] F/ [C3/E3/G3/] | [C3/F3/A3/] [A,CF] E/ [A,F] E/ [Dd] c/ | [D3G3=B3] [DGBd] C/ D [D/G/B/] | [C/E/G/]D/[C/F/A/] [EGc] [D/G/=B/] [E3G3c3] | [D6_G6A6c6] | [A,3/D3/_G3/] [D3/F3/A3/] [F3/A3/d3/] [D3/=G3/B3/] | [C3/_G3/A3/] [B,D=G] [A,/F/] [B,3D3G3] | [B,3/D3/] [D3/G3/B3/] [D3/F3/A3/] [F3/A3/d3/] | [F3/A3/c3/] [C3/F3/A3/] [A,3/C3/F3/c3/] [A,Acf] B,/ | [C3E3G3c3] [G3c3e3] | [A3/c3/f3/] [G3/B3/d3/] [E3/G3/c3/] [F3/c3/f3/] | [F3/A3/c3/] [E3/G3/B3/] [C3/F3/A3/] [DFB] [_E/A/c/] | [F3B3d3] [B,3/D3/F3/] [B,EB] [C/F/A/] | [DG] B,/ [A,CF] [C/E/] [A,3C3F3] [K: Bb]  | [B,3D3F3] [B,3D3] | [B,3/D3/F3/] [DFB] B,/ [A,Fcf] B/ [F3/A3/c3/] | [F3/B3/d3/] [DFB] [C/A/] [B,DB] A/ [CGg] f/ | [G3c3=e3] [G2-c2-e2-g2-] [G/c/e/g/][G/c/e/] | [F/A/c/]G/[F/B/d/] [FAf] [G/c/=e/] [A3c3f3] | [F3B3d3f3] [F3B3d3] | [D3F3B3] [B,3D3] | [B,3/D3/F3/] [DFB] B,/ [A,Fcf] B/ [F3/A3/c3/] | [F3/B3/d3/] [DFB] [C/A/] [B,DB] A/ [CGg] f/ | [G3c3=e3] [G3c3e3g3] | [Acf] [F/B/d/] [FAc] [=E/G/] [C3/F3/A3/] [F3/c3/] | [D3F3d3] [D3F3G3] | [D3G3=B3] [G3/B3/d3/] [G3/c3/e3/] | [E3/G3/c3/] [D3/G3/=B3/] [E3G3c3] | [C3/E3/G3/] [G3/c3/e3/] [G3/B3/d3/] [Bdg] A,/ | [B,Bdf] A,/ [B,DF] C/ [DFB] C/ [DBdf] E/ | [F3A3c3] [c3e3a3] | [B,3/d3/f3/b3/] [G3/e3/g3/] [FAc] [F/-B/-d/-] [FBd] [E/B/e/] | [D3/F3/B3/] [C3/F3/A3/] [D3F3B3] | [F3B3d3] [G3=B3d3f3] | [D3/G3/=B3/] [B,3/D3/G3/] [G3/B3/d3/] [G3/c3/e3/] | [E3/G3/c3/] [D3/G3/=B3/] [E3/G3/c3/] [C3/E3/] | [C3/E3/G3/] [G3/c3/e3/] [G3/B3/d3/] [Bdg] A,/ | [B,Bdf] A,/ [B,DF] C/ [DFB] C/ [DBdf] E/ | [F3/A3/c3/] [F3/A3/] [c3e3a3] | [B,3/d3/f3/b3/] [G3/e3/g3/] [F3/A3/c3/] [FBd] [E/G/] | [D3/F3/B3/] [C3/F3/A3/] [D3F3B3] | [F4B4d4] _A,/ [GBe] [A/d/f/] | [B4-e4-g4-] [B/e/g/] [E3/G3/] | [CFc] [D/F/B/] [C3/G3/g3/] [F3/A3/c3/] [F3/B3/f3/] | [F3/B3/d3/] [E3/A3/c3/] [D3F3B3]|]
[V: P9]  F,,/ F,,4 _E,/ D, C,/ | [M: 12/8]  B,,4 A,,/ G,, F,,/ | [E,,G,] F,,/ [B,,3/G,3/]z3/ A,,3/4G,,/4F,,/ | C,3/ C,,3/ F,,3- | F,,3 F,3 |z2z/ F,/ E, D,/ C, B,,/ | A,,3/ C, G,/ [D,F,] C,/ [=B,,G,] A,,/ | G,,4 A,,/ =B,, G,,/ | C,/=B,,/A,,/ G,, G,/ C, _B,,/ A,, G,,/ | F,,6- | F,,3 F,3 |z2z/ F,/ E, D,/ C, B,,/ | A,,3/ C, G,/ [D,F,] C,/ [=B,,G,] A,,/ | G,,4 A,,/ =B,, G,,/ | C,/=B,,/A,,/ G,, G,,/ C,,3 | D,,6- | D,,6 | D,,3 G,,3 | G,3/z G,,/ D, _D,/ =D, E,/ | F, E,/ F, G,/z G,/z3/ | z6 | F,3/ B,,3 A,, B,,/ | C,3/ C,,3/ F, _E,/ D, C,/ | B,,4 A,,/ G,, F,,/ | [B,,G,] D,/ C, [C,,/G,/] F,,3 [K: Bb]  | [B,,3F,3] F,3 | z4 G,/ F, E,/ | D,3/ F,3/ G, F,/ =E, D,/ | C,6 | F, B,,/ C, C,,/ F, E,/ D, C,/ | B,,6- | B,,3 F,3 | z4 G,/ F, E,/ | D,3/ F,3/ G, F,/ =E, D,/ | C,6 | F, B,,/ C,3/ F,3 | _A,,3 G,,3- | G,,6 | G,,3 C,3- | C,2 C,/C,/ G, _G,/ =G,3/ | z6 | z6 |z3/ E,2- E,/D,/ D, G,/ | F,3/ F,,3/ B,,3 | _A,,3 G,,3- | G,,6 | G,,3 C,3/ G,3/ |z2z/ C,/ G, _G,/ =G,3/ | z6 | z6 |z3/ E,3 D, E,/ | F,3/ F,,3/ B,,3- | B,,4 B,,/ G, F,/ | E,4 D,/ C, B,,/ | A,, B,,/ E,3 D,3/4C,/4B,,/ | F,3/ F,,3/ B,,3|]
[V: P10]  z6z/ | [M: 12/8]  z6 | z6 | z6 | z6 | z6 | z6 | z6 | z6 | z6 | z6 | z6 | z6 | z6 | z6 | z6 | z6 | z6 | z6 | z6 | z6 | z6 | z6 | z6 | z4 [K: Bb]  | z6 | z6 | z6 | z6 | z6 | z6 | z6 | z6 | z6 | z6 | z6 | z6 | z6 | z6 | z6 | z6 | z6 | z6 | z6 | z6 | z6 | z6 | z6 | z6 | z6 | z6 | z6 | z6 | z6 | z6 | z6|]

